assets/Wilted flower/Flat/wilted_flower_flat.svg

<svg width="32" height="32" viewBox="0 0 32 32" fill="none" xmlns="http://www.w3.org/2000/svg">
<path d="M19.39 7.76C18.98 6.11 16.99 3 12.42 3C9.66 3 7.14 4.77 6 7.51C4.96 10.03 5.3 12.82 6.86 15.37C5.25 15.58 4 16.95 4 18.61V23.16C4 23.36 4.16 23.52 4.36 23.52H4.53C6.35 23.52 7.82 22.05 7.82 20.23V16.71C8.1 17.05 8.38 17.38 8.71 17.71C13.91 22.91 8.93 28.07 8.71 28.3C8.32 28.69 8.32 29.32 8.71 29.71C8.9 29.9 9.16 30 9.42 30C9.68 30 9.93 29.9 10.13 29.71C12.45 27.39 15.44 21.6 10.13 16.3C7.62 13.79 6.79 10.86 7.86 8.28C8.66 6.32 10.5 5 12.42 5C16.54 5 17.42 8.12 17.45 8.24C17.58 8.78 18.13 9.1 18.66 8.97C19.19 8.84 19.52 8.29 19.39 7.76Z" fill="#86D72F"/>
<path d="M20.36 13.4799L19.67 13.6199C19.63 13.6299 19.61 13.6499 19.57 13.6599C19.51 13.6399 19.45 13.6399 19.38 13.6499L18.68 13.7899C16.96 14.1299 15.85 15.7999 16.19 17.5099L17.11 22.1499C17.15 22.3699 17.37 22.5199 17.59 22.4699L18.29 22.3299C19.55 22.0799 20.48 21.1099 20.75 19.9299C21.45 20.9299 22.69 21.4799 23.96 21.2299L24.65 21.0899C24.88 21.0399 25.03 20.8199 24.98 20.5899L24.06 15.9599C23.74 14.2499 22.07 13.1399 20.36 13.4799Z" fill="#CA0B4A"/>
<path d="M18.61 8.28L19.59 8.09C22 7.61 24.35 9.18 24.83 11.59L26.13 18.1C26.19 18.42 25.98 18.74 25.66 18.8L24.68 18.99C22.89 19.35 21.14 18.57 20.16 17.17C19.78 18.82 18.47 20.19 16.7 20.54L15.71 20.74C15.4 20.81 15.09 20.6 15.03 20.29L13.73 13.76C13.25 11.35 14.82 9.01 17.23 8.53L18.22 8.33C18.31 8.31 18.4 8.32 18.48 8.34C18.4912 8.3344 18.5024 8.32802 18.5139 8.3215C18.5432 8.30477 18.574 8.2872 18.61 8.28Z" fill="#F8312F"/>
<path d="M26.99 30H26.49C25.06 30 23.89 28.84 23.9 27.41V23.62C23.9 23.39 24.09 23.2 24.32 23.2H24.82C26.25 23.2 27.41 24.36 27.41 25.79V29.58C27.41 29.81 27.22 30 26.99 30Z" fill="#F8312F"/>
</svg>

<svg xmlns="http://www.w3.org/2000/svg" width="32" height="32" fill="none"><path fill="#86D72F" d="M19.39 7.76C18.98 6.11 16.99 3 12.42 3 9.66 3 7.14 4.77 6 7.51c-1.04 2.52-.7 5.31.86 7.86C5.25 15.58 4 16.95 4 18.61v4.55c0 .2.16.36.36.36h.17c1.82 0 3.29-1.47 3.29-3.29v-3.52c.28.34.56.67.89 1 5.2 5.2.22 10.36 0 10.59a.996.996 0 0 0 .71 1.7c.26 0 .51-.1.71-.29 2.32-2.32 5.31-8.11 0-13.41-2.51-2.51-3.34-5.44-2.27-8.02C8.66 6.32 10.5 5 12.42 5c4.12 0 5 3.12 5.03 3.24a1 1 0 0 0 1.21.73c.53-.13.86-.68.73-1.21Z"/><path fill="#CA0B4A" d="m20.36 13.48-.69.14c-.04.01-.06.03-.1.04a.401.401 0 0 0-.19-.01l-.7.14a3.164 3.164 0 0 0-2.49 3.72l.92 4.64c.04.22.26.37.48.32l.7-.14a3.155 3.155 0 0 0 2.46-2.4c.7 1 1.94 1.55 3.21 1.3l.69-.14c.23-.05.38-.27.33-.5l-.92-4.63c-.32-1.71-1.99-2.82-3.7-2.48Z"/><path fill="#F8312F" d="m18.61 8.28.98-.19a4.46 4.46 0 0 1 5.24 3.5l1.3 6.51c.06.32-.15.64-.47.7l-.98.19c-1.79.36-3.54-.42-4.52-1.82a4.446 4.446 0 0 1-3.46 3.37l-.99.2a.573.573 0 0 1-.68-.45l-1.3-6.53a4.45 4.45 0 0 1 3.5-5.23l.99-.2c.09-.02.18-.01.26.01l.034-.018a.322.322 0 0 1 .096-.042ZM26.99 30h-.5c-1.43 0-2.6-1.16-2.59-2.59v-3.79c0-.23.19-.42.42-.42h.5a2.59 2.59 0 0 1 2.59 2.59v3.79c0 .23-.19.42-.42.42Z"/></svg>
